material/.icons/material/account-heart.svg

<svg xmlns="http://www.w3.org/2000/svg" viewBox="0 0 24 24"><path d="M15 14c-2.7 0-8 1.3-8 4v2h16v-2c0-2.7-5.3-4-8-4m0-2a4 4 0 004-4 4 4 0 00-4-4 4 4 0 00-4 4 4 4 0 004 4M5 15l-.6-.5C2.4 12.6 1 11.4 1 9.9c0-1.2 1-2.2 2.2-2.2.7 0 1.4.3 1.8.8.4-.5 1.1-.8 1.8-.8C8 7.7 9 8.6 9 9.9c0 1.5-1.4 2.7-3.4 4.6L5 15z"/></svg>

<?xml version="1.0" encoding="UTF-8"?><!DOCTYPE svg PUBLIC "-//W3C//DTD SVG 1.1//EN" "http://www.w3.org/Graphics/SVG/1.1/DTD/svg11.dtd"><svg xmlns="http://www.w3.org/2000/svg" xmlns:xlink="http://www.w3.org/1999/xlink" version="1.1" id="mdi-account-heart" width="24" height="24" viewBox="0 0 24 24"><path d="M15,14C12.3,14 7,15.3 7,18V20H23V18C23,15.3 17.7,14 15,14M15,12A4,4 0 0,0 19,8A4,4 0 0,0 15,4A4,4 0 0,0 11,8A4,4 0 0,0 15,12M5,15L4.4,14.5C2.4,12.6 1,11.4 1,9.9C1,8.7 2,7.7 3.2,7.7C3.9,7.7 4.6,8 5,8.5C5.4,8 6.1,7.7 6.8,7.7C8,7.7 9,8.6 9,9.9C9,11.4 7.6,12.6 5.6,14.5L5,15Z" /></svg>
